X:1
T: The New Ayr Strathspey
C:
R:Strathspey
Q: 128
K:A
M:4/4
L:1/16
|:E3A|c4 c4 c4 A3c|e3^d e3f e4 ((3e2f2g2) |a2g2 f2e2 d2c2 B2A2|G3A B2c2 B4 A3B|
c4 d3B A4 A3c|e3^d e3f e4 ((3e2f2g2) |a2e2 c2A2 d2B2 G2B2|A4 A,4 A,4 E3D|
C2E2 A2B2 c4 B3c|d2B2 G2B2 A2E2 A3G|F2D2 B3c d2c2 B2A2|G3A B2c2 B4 A3B|
c4 d3B A4 A3c|e3^d e3f e4 ((3e2f2g2) |a2e2 c2A2 d2B2 G2B2|A4 A,4 A,4:|
